assets/img/braze_icons/link-05.svg

<svg fill="none" height="24" viewBox="0 0 24 24" width="24" xmlns="http://www.w3.org/2000/svg"><g fill="#801ed7"><path d="m7 8c-2.20914 0-4 1.79086-4 4 0 2.2091 1.79086 4 4 4h2c.55228 0 1 .4477 1 1s-.44772 1-1 1h-2c-3.31371 0-6-2.6863-6-6 0-3.31371 2.68629-6 6-6h2c.55228 0 1 .44772 1 1s-.44772 1-1 1z"/><path clip-rule="evenodd" d="m7 12c0-.5523.44772-1 1-1h6v-3.22222c0-.98184.7959-1.77778 1.7778-1.77778h1.2222c3.3137 0 6 2.68629 6 6 0 3.3137-2.6863 6-6 6h-1.2222c-.9819 0-1.7778-.7959-1.7778-1.7778v-3.2222h-6c-.55228 0-1-.4477-1-1zm9 1v3h1c2.2091 0 4-1.7909 4-4 0-2.20914-1.7909-4-4-4h-1v3h2c.5523 0 1 .4477 1 1s-.4477 1-1 1z" fill-rule="evenodd"/></g></svg>

<svg width="24" height="24" viewBox="0 0 24 24" fill="none" xmlns="http://www.w3.org/2000/svg">
<path d="M7 8C4.79086 8 3 9.79086 3 12C3 14.2091 4.79086 16 7 16H9C9.55228 16 10 16.4477 10 17C10 17.5523 9.55228 18 9 18H7C3.68629 18 1 15.3137 1 12C1 8.68629 3.68629 6 7 6H9C9.55228 6 10 6.44772 10 7C10 7.55228 9.55228 8 9 8H7Z" fill="#801ED7"/>
<path fill-rule="evenodd" clip-rule="evenodd" d="M7 12C7 11.4477 7.44772 11 8 11L14 11V7.77778C14 6.79594 14.7959 6 15.7778 6H17C20.3137 6 23 8.68629 23 12C23 15.3137 20.3137 18 17 18H15.7778C14.7959 18 14 17.2041 14 16.2222V13L8 13C7.44772 13 7 12.5523 7 12ZM16 13V16H17C19.2091 16 21 14.2091 21 12C21 9.79086 19.2091 8 17 8H16V11H18C18.5523 11 19 11.4477 19 12C19 12.5523 18.5523 13 18 13H16Z" fill="#801ED7"/>
</svg>
